src/assets/obucheniye/icons/instagram.svg

<svg fill="none" height="40" viewBox="0 0 40 40" width="40" xmlns="http://www.w3.org/2000/svg"><rect height="39" rx="2.5" stroke="#fff" width="39" x=".5" y=".5"/><g fill="#fff"><path d="m26.5488 7h-12.0979c-4.1084 0-7.4509 3.2798-7.4509 7.3111v11.8707c0 4.0313 3.3425 7.311 7.4509 7.311h12.0979c4.1087 0 7.4512-3.2798 7.4512-7.311v-11.8707c.0002-4.0313-3.3425-7.3111-7.4512-7.3111zm5.0558 19.1818c0 2.7352-2.268 4.9604-5.0556 4.9604h-12.0981c-2.7875.0002-5.05533-2.2252-5.05533-4.9604v-11.8707c0-2.7352 2.26783-4.96053 5.05533-4.96053h12.0979c2.7877 0 5.0556 2.22533 5.0556 4.96053v11.8707z"/><path d="m20.5002 13.4204c-3.8363 0-6.9572 3.0625-6.9572 6.8268 0 3.7642 3.1209 6.8265 6.9572 6.8265s6.9572-3.0623 6.9572-6.8265c0-3.7643-3.1209-6.8268-6.9572-6.8268zm0 11.3025c-2.5152 0-4.5617-2.0078-4.5617-4.4758 0-2.4682 2.0463-4.4762 4.5617-4.4762s4.5617 2.008 4.5617 4.4762c0 2.468-2.0465 4.4758-4.5617 4.4758z"/><path d="m27.7489 11.4272c-.4615 0-.9149.1834-1.2409.5047-.3275.3198-.5158.7649-.5158 1.2195 0 .4531.1884.8981.5158 1.2194.3258.3197.7794.5047 1.2409.5047.4631 0 .9151-.185 1.2425-.5047.3274-.3213.5142-.7665.5142-1.2194 0-.4546-.1868-.8997-.5142-1.2195-.3258-.3213-.7794-.5047-1.2425-.5047z"/></g></svg>

<svg width="40" height="40" viewBox="0 0 40 40" fill="none" xmlns="http://www.w3.org/2000/svg">
<rect x="0.5" y="0.5" width="39" height="39" rx="2.5" stroke="white"/>
<path d="M26.5488 7H14.4509C10.3425 7 7 10.2798 7 14.3111V26.1818C7 30.2131 10.3425 33.4928 14.4509 33.4928H26.5488C30.6575 33.4928 34 30.213 34 26.1818V14.3111C34.0002 10.2798 30.6575 7 26.5488 7ZM31.6046 26.1818C31.6046 28.917 29.3366 31.1422 26.549 31.1422H14.4509C11.6634 31.1424 9.39557 28.917 9.39557 26.1818V14.3111C9.39557 11.5759 11.6634 9.35057 14.4509 9.35057H26.5488C29.3365 9.35057 31.6044 11.5759 31.6044 14.3111V26.1818H31.6046Z" fill="white"/>
<path d="M20.5002 13.4204C16.6639 13.4204 13.543 16.4829 13.543 20.2472C13.543 24.0114 16.6639 27.0737 20.5002 27.0737C24.3365 27.0737 27.4574 24.0114 27.4574 20.2472C27.4574 16.4829 24.3365 13.4204 20.5002 13.4204ZM20.5002 24.7229C17.985 24.7229 15.9385 22.7151 15.9385 20.2471C15.9385 17.7789 17.9848 15.7709 20.5002 15.7709C23.0156 15.7709 25.0619 17.7789 25.0619 20.2471C25.0619 22.7151 23.0154 24.7229 20.5002 24.7229Z" fill="white"/>
<path d="M27.7489 11.4272C27.2874 11.4272 26.834 11.6106 26.508 11.9319C26.1805 12.2517 25.9922 12.6968 25.9922 13.1514C25.9922 13.6045 26.1806 14.0495 26.508 14.3708C26.8338 14.6905 27.2874 14.8755 27.7489 14.8755C28.212 14.8755 28.664 14.6905 28.9914 14.3708C29.3188 14.0495 29.5056 13.6043 29.5056 13.1514C29.5056 12.6968 29.3188 12.2517 28.9914 11.9319C28.6656 11.6106 28.212 11.4272 27.7489 11.4272Z" fill="white"/>
</svg>
